img/tel-icon.svg

<svg width="19" height="20" viewBox="0 0 19 20" fill="none" xmlns="http://www.w3.org/2000/svg">
<path d="M15.572 19.485H14.631C10.502 18.997 7.47403 17.077 5.27203 14.621C3.06203 12.16 1.31803 8.99202 0.978027 4.72802V3.58402C1.05603 2.81002 1.43703 2.28002 1.87603 1.82702C2.42503 1.26602 3.25003 0.54402 4.00203 0.51902C4.55603 0.50102 5.50203 0.89902 5.88103 1.41802C6.21003 1.86402 6.38503 2.75702 6.53703 3.42102C6.69103 4.09202 7.04203 5.06402 6.94503 5.71002C6.79703 6.71702 5.45803 7.14402 5.06603 7.87602C6.37303 11.011 8.50903 13.315 11.359 14.907C12.074 14.515 12.705 13.335 13.691 13.312C14.05 13.303 14.509 13.49 14.875 13.598C15.277 13.719 15.625 13.873 15.979 14.006C16.575 14.23 17.627 14.527 17.983 15.027C18.348 15.54 18.553 16.383 18.473 16.906C18.309 17.947 16.594 19.103 15.572 19.485Z" fill="#B7BFC8"/>
</svg>

<svg width="19" height="20" fill="none" xmlns="http://www.w3.org/2000/svg"><path d="M15.57 19.48h-.94a14.53 14.53 0 01-9.36-4.86 16.33 16.33 0 01-4.3-9.9V3.59c.09-.77.47-1.3.9-1.75C2.44 1.27 3.26.54 4 .52c.56-.02 1.5.38 1.88.9.33.44.5 1.34.66 2 .15.67.5 1.64.4 2.29-.14 1-1.48 1.43-1.87 2.17a14.03 14.03 0 006.29 7.03c.71-.4 1.35-1.57 2.33-1.6.36 0 .82.18 1.19.29.4.12.74.27 1.1.4.6.23 1.65.53 2 1.03.37.51.57 1.35.5 1.88-.17 1.04-1.89 2.2-2.9 2.57z" fill="#B7BFC8"/></svg>
